icons/edit-box-fill.svg

<svg xmlns="http://www.w3.org/2000/svg" width="24" height="24" fill="none"><g clip-path="url(#a)"><g><path fill="#121212" d="M16.757 2.99998L9.291 10.466L9.299 14.713L13.537 14.706L21 7.24298V20C21 20.2652 20.8946 20.5195 20.7071 20.7071C20.5196 20.8946 20.2652 21 20 21H4C3.73478 21 3.48043 20.8946 3.29289 20.7071C3.10536 20.5195 3 20.2652 3 20V3.99998C3 3.73476 3.10536 3.48041 3.29289 3.29287C3.48043 3.10533 3.73478 2.99998 4 2.99998H16.757ZM20.485 2.09998L21.9 3.51598L12.708 12.708L11.296 12.711L11.294 11.294L20.485 2.09998Z"/></g></g><defs><clipPath id="a"><rect width="24" height="24" fill="white"/></clipPath></defs></svg>

<svg width="24" height="24" fill="none" xmlns="http://www.w3.org/2000/svg"><g clip-path="url(#a)"><path d="m16.757 3-7.466 7.466.008 4.247 4.238-.007L21 7.243V20a1 1 0 0 1-1 1H4a1 1 0 0 1-1-1V4a1 1 0 0 1 1-1h12.757Zm3.728-.9L21.9 3.516l-9.192 9.192-1.412.003-.002-1.417L20.485 2.1Z" /></g><defs><clipPath id="a"><path fill="#fff" d="M0 0h24v24H0z"/></clipPath></defs></svg>
